packages/icons/src/person-in-wheelchair.svg

<svg width="24" height="24" viewBox="0 0 24 24" fill="none" xmlns="http://www.w3.org/2000/svg">
<path fill-rule="evenodd" clip-rule="evenodd" d="M11.1673 5.94178C12.2447 5.94178 13.1201 5.05946 13.1201 3.97089C13.1201 2.88211 12.2447 2 11.1673 2C10.0887 2 9.21405 2.88211 9.21405 3.97089C9.21405 5.05946 10.0887 5.94178 11.1673 5.94178ZM8.30044 10.0727V11.9202C6.78303 12.5967 5.71997 14.1277 5.71997 15.9065C5.71997 18.3093 7.65671 20.2641 10.0383 20.2641C12.0049 20.2641 13.6661 18.9286 14.185 17.1102C14.4202 17.1081 14.6418 17.1062 14.8332 17.1046L15.5151 18.4564C14.5561 20.5445 12.4646 22 10.0383 22C6.70871 22 4 19.2663 4 15.9065C4 13.1562 5.81559 10.8282 8.30044 10.0727ZM11.1673 6.76834C12.3584 6.76834 12.8869 7.78531 12.8869 8.50441V11.1194H15.7702C16.2456 11.1194 16.6303 11.5083 16.6303 11.9875C16.6303 12.1769 16.5581 12.3424 16.4564 12.4849C16.3001 12.7037 16.0581 12.8555 15.7702 12.8555H12.8869V13.6267H16.2371C16.6688 13.6267 17.0636 13.8711 17.2587 14.2595L19.8746 19.4497C20.1625 20.0194 19.9379 20.7165 19.3726 21.0059C19.2066 21.0917 19.0288 21.1321 18.8536 21.1321C18.4356 21.1321 18.0328 20.9005 17.831 20.4989L15.534 15.9412H11.2019C10.2328 15.9412 9.44732 15.1482 9.44732 14.1702V8.50441C9.44732 7.54567 10.2173 6.76834 11.1673 6.76834Z" fill="black"/>
</svg>

<svg xmlns="http://www.w3.org/2000/svg" width="24" height="24" fill="none" viewBox="0 0 24 24">
  <path fill="#000" fill-rule="evenodd" d="M11.167 5.942A1.963 1.963 0 0 0 13.12 3.97c0-1.088-.875-1.97-1.953-1.97a1.962 1.962 0 0 0-1.953 1.97c0 1.09.875 1.972 1.953 1.972ZM8.3 10.072v1.848a4.364 4.364 0 0 0-2.58 3.986c0 2.403 1.937 4.358 4.318 4.358 1.967 0 3.628-1.335 4.147-3.154l.648-.005.682 1.351C14.556 20.544 12.465 22 10.038 22 6.708 22 4 19.266 4 15.906a6.096 6.096 0 0 1 4.3-5.833Zm2.867-3.304c1.191 0 1.72 1.017 1.72 1.736v2.615h2.883c.476 0 .86.39.86.869a.85.85 0 0 1-.174.497.843.843 0 0 1-.686.37h-2.883v.772h3.35c.432 0 .827.244 1.022.632l2.616 5.19a1.16 1.16 0 0 1-.502 1.557 1.144 1.144 0 0 1-1.542-.507l-2.297-4.558h-4.332c-.97 0-1.755-.793-1.755-1.77V8.503c0-.958.77-1.736 1.72-1.736Z" clip-rule="evenodd"/>
</svg>
